X:1
T:Standin In The Need of Prayer
T:Wrestling Jacob
T:Copyright 1881 by The Riverside Press
T:Rodeheaver's Plantation Melodies
T:Rodeheaver's Plantation Melodies
T:Rodeheaver's Plantation Melodies
Z:Rodeheaver's Plantation Melodies
%%score [ 1 2 3 4 ]
L:1/8
Q:1/4=100
M:4/4
K:Bb
V:1 treble nm="Soprano" snm="S."
V:2 treble nm="Alto" snm="A."
V:3 bass nm="Tenor" snm="T."
V:4 bass nm="Bass" snm="B."
V:1
 F3 E DFBB | c3 B/c/ dc z2 | F3 E DF ee/e/ | ddcc B4!fine! :| BB !fermata!d2 A !fermata!c2 z/ G/ | %5
w: Wrest- ling Ja- cob, Ja- cob,|day is a- break- ing,|||Let me go, Ja- cob *|
w: |||||
 GGAA B4 | BB !fermata!d2 A !fermata!c2 z/ G/ | GGAA B3 F | B2 B2 A c2 z/ G/ | GGAA B3 F | %10
w: |Let me go Ja- cob *|* * * * * Un-|til thou bless me *|* * * * * Un-|
w: |||||
 B2 B2 A c2 z/ G/ | GGAA B4 | F3 E DFBB | c3 B/c/ dc z2 | F3 E DF ee/e/ | ddcB B3 F | BBBB AB c>G | %17
w: til thou bless me *||Wrest- ling Ja- cob, Ja- cob,|day is a- break- ing||* * * * * I'll|hold thee till the break of day *|
w: |||||* * * * * I'll|wres- tle till the break of day *|
 GGAA B3 F | BBBB AB c>G | GGAA B4!D.C.! |] %20
w: * * * * * Un-|til thou tell me what's thy name *||
w: * * * * * Un-|til thou come and bless my soul *||
V:2
 z8 | z8 | D3 C B,D GG/G/ | FFEE D4 :| z4 z2 z z/ E/ | EEEE D4 | z4 z2 z z/ E/ | EEEE D3 z | %8
w: ||||I|will not let thee go|I|will not let thee go|
 z4 z2 z z/ E/ | EEEE D3 z | z7 z/ E/ | EEEE D4 | z8 | z8 | D3 C B,D GG/G/ | FFEE D3 z | %16
w: I|will not let thee go|I|will not let thee go|||Wrest- ling Ja- cob, Ja- cob, I|will not let thee go|
 z4 z2 z z/ E/ | EEEE D3 F | z4 z2 z z/ E/ | EEEE D4 |] %20
w: I|will not let thee go *|I|will not let thee go|
V:3
 z8 | z8 | B,3 B, B,B, B,B,/B,/ | B,B,F,F, F,4 :| z4 z2 z z/ B,/ | B,B,F,F, F,4 | z4 z2 z z/ B,/ | %7
w: ||Wrest- ling Ja- cob, Ja- cob, I|will not let thee go.||||
 B,B,F,F, F,3 z | z4 z2 z z/ B,/ | B,B,F,F, F,3 z | z7 z/ B,/ | B,B,F,F, F,4 | z8 | z8 | %14
w: |||||||
 B,3 B, B,B, B,B,/B,/ | B,B,F,F, F,3 z | z4 z2 z z/ B,/ | B,B,F,F, F,3 z | z4 z2 z z/ B,/ | %19
w: |||||
 B,B,F,F, F,4 |] %20
w: |
V:4
 z8 | z8 | B,,3 B,, B,,B,, E,E,/E,/ | F,F,F,F, B,,4 :| z4 z2 z z/ E,/ | E,E,F,F, B,,4 | %6
 z4 z2 z z/ E,/ | E,E,F,F, B,,3 z | z4 z2 z z/ E,/ | E,E,F,F, B,,3 z | z7 z/ E,/ | E,E,F,F, B,,4 | %12
 z8 | z8 | B,,3 B,, B,,B,, E,E,/E,/ | F,F,F,F, B,,3 z | z4 z2 z z/ E,/ | E,E,F,F, F,3 z | %18
 z4 z2 z z/ E,/ | E,E,F,F, F,4 |] %20

